X: 3286
T: Tyrolervals I
B:[[Notböcker/Melodier til gamle danske Almuedanse for Violin solo]]
O:Danmark
Z:Søren Bak Vestergaard
M: 3/4
L: 1/8
K: C
C>C E>E G>G|(G>e) c2 (3(EGc)|(d2 f) z (3(DFB)|(c2 e) z z2|\
C>C E>E G>G|(G>e) c2 (3(EGc)|(d2 f) z (3(DFB)|1 c4 z2:|2 c2 z2\
|:(3(EGc)|B2 d2 (3(DFB)|c2 e2 (3(EGc)|B2 d2 (3(DFB)|c2 e2 z2|\
C>C E>E G>G|(G>e) c2 (3(EGc)|(d2 f) z (3(DFB)|1 c2 z2:|2 c2 z2 z2|]
(:musicend:)
(:music:)
